Adwaita++/mimetypes/scalable/model.svg

<svg height="256" viewBox="0 0 67.73 67.73" width="256" xmlns="http://www.w3.org/2000/svg" xmlns:xlink="http://www.w3.org/1999/xlink">
  <filter id="filter16020-3" color-interpolation-filters="sRGB" height="1.021433" width="1.027265" x="-.013633" y="-.010717">
    <feGaussianBlur stdDeviation="2.0004419"/>
  </filter>
  <g enable-background="new" stroke-width=".25" transform="matrix(.13297834 0 0 .13297834 .605824 28.61487660106)">
    <path d="m111.82842-178.55025h200l120.17158 119.671571.005 296.240039c.00031 17.728-14.44878 32.08839-32.17678 32.08839h-288c-17.72799 0-31.999992-14.272-31.999992-32v-384c0-17.728 14.272002-32 31.999992-32z" filter="url(#filter16020-3)" opacity=".4"/>
    <path d="m111.82842-179.67158h200l120.17158 119.67158.005 296.24003c.00031 17.728-14.44878 32.08839-32.17678 32.08839h-288c-17.727992 0-31.999992-14.272-31.999992-32v-384c0-17.728 14.272-32 31.999992-32z" fill="#f6f5f4"/>
    <path d="m311.82842-175.69243v88.000007c0 17.728 14.44211 31.693795 32.17011 31.693795l88.00147-.022223v-3.979149z" opacity=".25"/>
    <path d="m311.82842-179.67158v88.000008c0 17.728 14.44211 31.693795 32.17011 31.693795l88.00147-.022223z" fill="#deddda"/>
    <g enable-background="new" fill="#f4541b" stroke="none" transform="matrix(1.98967238306 0 0 1.98967238306 -46.51358901413 -262.08116122806)">
      <path d="m148 149.9999v64h8v-64z" fill="#3d241c" opacity=".2"/>
      <g fill="#f74506">
        <path d="m152 91.457031-56 30.154299v2.38867 62.38867l56 30.1543 56-30.1543v-64.77734zm0 9.085939 48 25.8457v55.22266l-48 25.8457-48-25.8457v-55.22266z"/>
        <path d="m101.89648 120.47852-3.792964 7.04296 53.896484 29.02149 53.89648-29.02149-3.79296-7.04296-50.10352 26.97851z"/>
        <path d="m148 148v64h8v-64z"/>
      </g>
    </g>
  </g>
</svg>

<?xml version="1.0" encoding="UTF-8" standalone="no"?>
<svg
   xmlns:dc="http://purl.org/dc/elements/1.1/"
   xmlns:cc="http://creativecommons.org/ns#"
   xmlns:rdf="http://www.w3.org/1999/02/22-rdf-syntax-ns#"
   xmlns:svg="http://www.w3.org/2000/svg"
   xmlns="http://www.w3.org/2000/svg"
   xmlns:sodipodi="http://sodipodi.sourceforge.net/DTD/sodipodi-0.dtd"
   xmlns:inkscape="http://www.inkscape.org/namespaces/inkscape"
   width="256"
   height="256"
   version="1.1"
   viewBox="0 0 67.73 67.73"
   id="svg37"
   sodipodi:docname="model.svg"
   inkscape:version="0.92.3 (2405546, 2018-03-11)">
  <metadata
     id="metadata41">
    <rdf:RDF>
      <cc:Work
         rdf:about="">
        <dc:format>image/svg+xml</dc:format>
        <dc:type
           rdf:resource="http://purl.org/dc/dcmitype/StillImage" />
        <dc:title />
      </cc:Work>
    </rdf:RDF>
  </metadata>
  <sodipodi:namedview
     pagecolor="#ffffff"
     bordercolor="#666666"
     borderopacity="1"
     objecttolerance="10"
     gridtolerance="10"
     guidetolerance="10"
     inkscape:pageopacity="0"
     inkscape:pageshadow="2"
     inkscape:window-width="1920"
     inkscape:window-height="1009"
     id="namedview39"
     showgrid="false"
     inkscape:zoom="3.6304347"
     inkscape:cx="81.750994"
     inkscape:cy="125"
     inkscape:window-x="0"
     inkscape:window-y="34"
     inkscape:window-maximized="1"
     inkscape:current-layer="g17498-7" />
  <defs
     id="defs17">
    <linearGradient
       id="linearGradient4226"
       x1="529.655"
       x2="-35.31"
       y1="401.584"
       y2="119.093"
       gradientTransform="matrix(0 -.11988932 .11988589 0 .36278001 292.54831)"
       gradientUnits="userSpaceOnUse">
      <stop
         style="stop-color:#f2f2f2"
         offset="0"
         id="stop2" />
      <stop
         style="stop-color:#f9f9f9"
         offset="1"
         id="stop4" />
    </linearGradient>
    <linearGradient
       id="linearGradient4358"
       x1="88"
       x2="488"
       y1="88"
       y2="488"
       gradientUnits="userSpaceOnUse">
      <stop
         style="stop-color:#000000;stop-opacity:.58823532"
         offset="0"
         id="stop7" />
      <stop
         style="stop-color:#000000;stop-opacity:0"
         offset=".88"
         id="stop9" />
      <stop
         style="stop-color:#000000"
         offset="1"
         id="stop11" />
    </linearGradient>
    <filter
       id="filter4346"
       x="-.01"
       y="-.01"
       width="1.026"
       height="1.022"
       style="color-interpolation-filters:sRGB">
      <feGaussianBlur
         stdDeviation="2.12"
         id="feGaussianBlur14" />
    </filter>
    <filter
       inkscape:collect="always"
       style="color-interpolation-filters:sRGB"
       id="filter16020-3"
       x="-0.013632531"
       width="1.0272651"
       y="-0.010716653"
       height="1.0214334">
      <feGaussianBlur
         inkscape:collect="always"
         stdDeviation="2.0004419"
         id="feGaussianBlur16022-6" />
    </filter>
    <filter
       id="filter4346-3"
       x="-0.0099999998"
       y="-0.0099999998"
       width="1.026"
       height="1.022"
       style="color-interpolation-filters:sRGB">
      <feGaussianBlur
         stdDeviation="2.12"
         id="feGaussianBlur14-6" />
    </filter>
    <linearGradient
       id="linearGradient4226-5"
       x1="529.65503"
       x2="-35.310001"
       y1="401.58401"
       y2="119.093"
       gradientTransform="matrix(0,-0.11988932,-0.11988589,0,67.016455,292.5483)"
       gradientUnits="userSpaceOnUse">
      <stop
         style="stop-color:#76c22b"
         offset="0"
         id="stop2-6" />
      <stop
         style="stop-color:#a6d74f"
         offset="1"
         id="stop4-2" />
    </linearGradient>
    <filter
       id="filter4346-36"
       x="-0.0099999998"
       y="-0.0099999998"
       width="1.026"
       height="1.022"
       style="color-interpolation-filters:sRGB">
      <feGaussianBlur
         stdDeviation="2.12"
         id="feGaussianBlur14-7" />
    </filter>
    <linearGradient
       id="linearGradient4226-6"
       x1="529.65503"
       x2="-35.310001"
       y1="401.58401"
       y2="119.093"
       gradientTransform="matrix(0,-0.11988932,-0.11988589,0,67.016455,292.54831)"
       gradientUnits="userSpaceOnUse">
      <stop
         style="stop-color:#37a6e6"
         offset="0"
         id="stop2-2" />
      <stop
         style="stop-color:#6dc7f1"
         offset="1"
         id="stop4-9" />
    </linearGradient>
  </defs>
  <g
     transform="matrix(0.13297834,0,0,0.13297834,0.60582436,28.614877)"
     style="display:inline;stroke-width:0.25;enable-background:new"
     id="g17498">
    <g
       transform="translate(0,-3.4178172e-6)"
       style="display:inline;stroke-width:0.25;enable-background:new"
       id="g17498-7">
      <path
         style="display:inline;opacity:0.4;fill:#000000;fill-opacity:1;stroke:none;stroke-width:0.5;stroke-linejoin:round;stroke-miterlimit:4;stroke-dasharray:none;stroke-opacity:1;filter:url(#filter16020-3);enable-background:new"
         clip-path="none"
         d="m 111.82842,-178.55025 h 200 L 432,-58.878679 432.005,237.36136 c 3.1e-4,17.728 -14.44878,32.08839 -32.17678,32.08839 h -288 c -17.72799,0 -31.999992,-14.272 -31.999992,-32 v -384 c 0,-17.728 14.272002,-32 31.999992,-32 z"
         id="path6869-5"
         inkscape:connector-curvature="0"
         sodipodi:nodetypes="sccssssss" />
      <path
         sodipodi:nodetypes="sccssssss"
         inkscape:connector-curvature="0"
         id="rect2069-3"
         d="m 111.82842,-179.67158 h 200 L 432,-60 l 0.005,296.24003 c 3.1e-4,17.728 -14.44878,32.08839 -32.17678,32.08839 h -288 c -17.727992,0 -31.999992,-14.272 -31.999992,-32 v -384 c 0,-17.728 14.272,-32 31.999992,-32 z"
         clip-path="none"
         style="display:inline;opacity:1;fill:#f6f5f4;fill-opacity:1;stroke:none;stroke-width:0.5;stroke-linejoin:round;stroke-miterlimit:4;stroke-dasharray:none;stroke-opacity:1;enable-background:new" />
      <path
         inkscape:connector-curvature="0"
         style="display:inline;opacity:0.25;vector-effect:none;fill:#000000;fill-opacity:1;stroke:none;stroke-width:0.5;stroke-linecap:butt;stroke-linejoin:round;stroke-miterlimit:4;stroke-dasharray:none;stroke-dashoffset:0;stroke-opacity:1;enable-background:new"
         d="m 311.82842,-175.69243 v 88.000007 c 0,17.728 14.44211,31.693795 32.17011,31.693795 L 432,-56.020851 V -60 Z"
         id="path836"
         sodipodi:nodetypes="cscccc" />
      <path
         sodipodi:nodetypes="csccc"
         id="rect26812-5"
         d="m 311.82842,-179.67158 v 88.000008 c 0,17.728 14.44211,31.693795 32.17011,31.693795 L 432,-60 Z"
         style="display:inline;opacity:1;vector-effect:none;fill:#deddda;fill-opacity:1;stroke:none;stroke-width:0.5;stroke-linecap:butt;stroke-linejoin:round;stroke-miterlimit:4;stroke-dasharray:none;stroke-dashoffset:0;stroke-opacity:1;enable-background:new"
         inkscape:connector-curvature="0" />
      <g
         transform="matrix(7.5200217,0,0,7.5200217,-389.9314,-1927.6428)"
         id="g37" />
      <g
         transform="matrix(7.5200217,0,0,7.5200217,-377.87481,-2000.7559)"
         id="g37-1">
        <g
           transform="matrix(0.26458333,0,0,0.26458333,44.063865,231.20608)"
           style="fill:#f4541b;fill-opacity:1;stroke:#ffffff;enable-background:new"
           id="g31">
          <g
             id="g851">
            <path
               style="color:#000000;font-style:normal;font-variant:normal;font-weight:normal;font-stretch:normal;font-size:medium;line-height:normal;font-family:sans-serif;font-variant-ligatures:normal;font-variant-position:normal;font-variant-caps:normal;font-variant-numeric:normal;font-variant-alternates:normal;font-feature-settings:normal;text-indent:0;text-align:start;text-decoration:none;text-decoration-line:none;text-decoration-style:solid;text-decoration-color:#000000;letter-spacing:normal;word-spacing:normal;text-transform:none;writing-mode:lr-tb;direction:ltr;text-orientation:mixed;dominant-baseline:auto;baseline-shift:baseline;text-anchor:start;white-space:normal;shape-padding:0;clip-rule:nonzero;display:inline;overflow:visible;visibility:visible;opacity:0.2;isolation:auto;mix-blend-mode:normal;color-interpolation:sRGB;color-interpolation-filters:linearRGB;solid-color:#000000;solid-opacity:1;vector-effect:none;fill:#3d241c;fill-opacity:1;fill-rule:nonzero;stroke:none;stroke-width:8;stroke-linecap:butt;stroke-linejoin:miter;stroke-miterlimit:4;stroke-dasharray:none;stroke-dashoffset:0;stroke-opacity:1;color-rendering:auto;image-rendering:auto;shape-rendering:auto;text-rendering:auto;enable-background:accumulate"
               d="m 148,149.9999 v 64 h 8 v -64 z"
               id="path1061"
               inkscape:connector-curvature="0" />
            <path
               inkscape:connector-curvature="0"
               id="path25"
               d="M 152,91.457031 96,121.61133 V 124 186.38867 l 56,30.1543 56,-30.1543 v -64.77734 z m 0,9.085939 48,25.8457 v 55.22266 l -48,25.8457 -48,-25.8457 v -55.22266 z"
               style="color:#000000;font-style:normal;font-variant:normal;font-weight:normal;font-stretch:normal;font-size:medium;line-height:normal;font-family:sans-serif;font-variant-ligatures:normal;font-variant-position:normal;font-variant-caps:normal;font-variant-numeric:normal;font-variant-alternates:normal;font-feature-settings:normal;text-indent:0;text-align:start;text-decoration:none;text-decoration-line:none;text-decoration-style:solid;text-decoration-color:#000000;letter-spacing:normal;word-spacing:normal;text-transform:none;writing-mode:lr-tb;direction:ltr;text-orientation:mixed;dominant-baseline:auto;baseline-shift:baseline;text-anchor:start;white-space:normal;shape-padding:0;clip-rule:nonzero;display:inline;overflow:visible;visibility:visible;opacity:1;isolation:auto;mix-blend-mode:normal;color-interpolation:sRGB;color-interpolation-filters:linearRGB;solid-color:#000000;solid-opacity:1;vector-effect:none;fill:#f74506;fill-opacity:1;fill-rule:nonzero;stroke:none;stroke-width:8;stroke-linecap:butt;stroke-linejoin:miter;stroke-miterlimit:4;stroke-dasharray:none;stroke-dashoffset:0;stroke-opacity:1;color-rendering:auto;image-rendering:auto;shape-rendering:auto;text-rendering:auto;enable-background:accumulate" />
            <path
               inkscape:connector-curvature="0"
               id="path27"
               d="M 101.89648,120.47852 98.103516,127.52148 152,156.54297 205.89648,127.52148 202.10352,120.47852 152,147.45703 Z"
               style="color:#000000;font-style:normal;font-variant:normal;font-weight:normal;font-stretch:normal;font-size:medium;line-height:normal;font-family:sans-serif;font-variant-ligatures:normal;font-variant-position:normal;font-variant-caps:normal;font-variant-numeric:normal;font-variant-alternates:normal;font-feature-settings:normal;text-indent:0;text-align:start;text-decoration:none;text-decoration-line:none;text-decoration-style:solid;text-decoration-color:#000000;letter-spacing:normal;word-spacing:normal;text-transform:none;writing-mode:lr-tb;direction:ltr;text-orientation:mixed;dominant-baseline:auto;baseline-shift:baseline;text-anchor:start;white-space:normal;shape-padding:0;clip-rule:nonzero;display:inline;overflow:visible;visibility:visible;opacity:1;isolation:auto;mix-blend-mode:normal;color-interpolation:sRGB;color-interpolation-filters:linearRGB;solid-color:#000000;solid-opacity:1;vector-effect:none;fill:#f74506;fill-opacity:1;fill-rule:nonzero;stroke:none;stroke-width:8;stroke-linecap:butt;stroke-linejoin:miter;stroke-miterlimit:4;stroke-dasharray:none;stroke-dashoffset:0;stroke-opacity:1;color-rendering:auto;image-rendering:auto;shape-rendering:auto;text-rendering:auto;enable-background:accumulate" />
            <path
               inkscape:connector-curvature="0"
               id="path29"
               d="m 148,148 v 64 h 8 v -64 z"
               style="color:#000000;font-style:normal;font-variant:normal;font-weight:normal;font-stretch:normal;font-size:medium;line-height:normal;font-family:sans-serif;font-variant-ligatures:normal;font-variant-position:normal;font-variant-caps:normal;font-variant-numeric:normal;font-variant-alternates:normal;font-feature-settings:normal;text-indent:0;text-align:start;text-decoration:none;text-decoration-line:none;text-decoration-style:solid;text-decoration-color:#000000;letter-spacing:normal;word-spacing:normal;text-transform:none;writing-mode:lr-tb;direction:ltr;text-orientation:mixed;dominant-baseline:auto;baseline-shift:baseline;text-anchor:start;white-space:normal;shape-padding:0;clip-rule:nonzero;display:inline;overflow:visible;visibility:visible;opacity:1;isolation:auto;mix-blend-mode:normal;color-interpolation:sRGB;color-interpolation-filters:linearRGB;solid-color:#000000;solid-opacity:1;vector-effect:none;fill:#f74506;fill-opacity:1;fill-rule:nonzero;stroke:none;stroke-width:8;stroke-linecap:butt;stroke-linejoin:miter;stroke-miterlimit:4;stroke-dasharray:none;stroke-dashoffset:0;stroke-opacity:1;color-rendering:auto;image-rendering:auto;shape-rendering:auto;text-rendering:auto;enable-background:accumulate" />
          </g>
        </g>
      </g>
    </g>
  </g>
</svg>
